X: 07088
T: The OPEN WINDOW
C: Bob McQuillen 24 Jan 86
B: Bob's Note Book 7 #88
%R: jig
Z: 2021 John Chambers <jc:trillian.mit.edu>
M: 6/8
L: 1/8
K: D
FG \
| AFA dfd | B2G E2D | CB,A, GAB | A3 F2G |\
| AFA dfa | gdB GBd | Ace gfe | d3- d :|
|: de \
| fgf ede | fdB Ade | faf edc | B3- B dB |\
| AFA Bde | fdB Adf | a2f efe | d3- d :|
%%begintext align
%% This little
%% tune is for New England Tradition's
%% very good friend Jim Halla, from
%% over Durham way. He seldom misses
%% one of our dances.
%% Hope you like this tune, Jim!
%%endtext

%%sep 1 1 500

%%sep 1 1 500

